X: 28591
T: Murroe, The
R: polka
M: 2/4
K: Gmajor
|:Bd G>A|Bd GB|AB/A/ FA|Ge ed|
Bd G>A|Bd GB|AB/A/ FA|AG GA:|
|:B/c/d ef|g>f ga|f/e/d ef|ed BA|
[1 B/c/d ef|g>f ga|f/e/d ef|e2 ed:|
[2 Bd GA|Bd GB|AB/A/ FA|AG G2||

